src/images/logo.svg

<svg viewBox="0 0 135 135" xmlns="http://www.w3.org/2000/svg"><path d="M67.5 0C30.2755 0 0 30.2755 0 67.5 0 104.724 30.2755 135 67.5 135c3.6788 0 7.2759-.3 10.7913-.872 22.9317-3.706 42.0337-18.994 51.0817-39.6634 3.624-8.2706 5.641-17.386 5.641-26.9646C135 30.2755 104.724 0 67.5 0Zm58.753 91.3444c-.205-.2044-.423-.4224-.614-.6132l-7.439-7.4394c-6.581-6.5811-23.7082-8.366-32.769-2.0711 8.7474-6.0769 16.446-9.8511 20.642-9.2925l-8.7062-9.4696c-3.0112-3.0112-6.0224-6.0769-9.1018-9.1017-6.0769-5.9679-13.9251-13.5709-23.2312-12.3446-4.9869.8175-9.4287 3.638-12.3037 7.821-.4087.545-.7903 1.1036-1.1445 1.6759l-13.5845 2.7796c-.9265.2316-1.6623.9537-1.9212 1.8803-.2588.9265 0 1.9211.6813 2.6024l10.8458 8.2978v-.0136c1.8803 1.4579 3.0248 2.3436 5.7635 5.0141 8.9655 9.2789 6.6083 15.3694 6.6083 26.0381.2044 7.9161 2.3708 15.6551 6.2949 22.5361 2.1801 4.006 4.9051 7.658 8.0798 10.901-2.2618.245-4.5508.381-6.8671.381-34.9491-.014-63.39879-28.45-63.39879-63.426C4.08761 32.5237 32.5373 4.08761 67.5 4.08761c34.963 0 63.412 28.44969 63.412 63.41239 0 8.4341-1.662 16.4867-4.659 23.8444ZM68.9988 59.1068c0 2.1528-1.7441 3.8968-3.8969 3.8968s-3.8968-1.744-3.8968-3.8968 1.744-3.8969 3.8968-3.8969c2.1665 0 3.8969 1.7441 3.8969 3.8969Z"/></svg>

<svg width="135" height="135" viewBox="0 0 135 135" xmlns="http://www.w3.org/2000/svg">
<title>Logo</title>
	<path d="M67.5 0C30.2755 0 0 30.2755 0 67.5C0 104.724 30.2755 135 67.5 135C71.1788 135 74.7759 134.7 78.2913 134.128C101.223 130.422 120.325 115.134 129.373 94.4646C132.997 86.194 135.014 77.0786 135.014 67.5C135 30.2755 104.724 0 67.5 0ZM126.253 91.3444C126.048 91.14 125.83 90.922 125.639 90.7312L118.2 83.2918C111.619 76.7107 94.4918 74.9258 85.431 81.2207C94.1784 75.1438 101.877 71.3696 106.073 71.9282L97.3668 62.4586C94.3556 59.4474 91.3444 56.3817 88.265 53.3569C82.1881 47.389 74.3399 39.786 65.0338 41.0123C60.0469 41.8298 55.6051 44.6503 52.7301 48.8333C52.3214 49.3783 51.9398 49.9369 51.5856 50.5092L38.0011 53.2888C37.0746 53.5204 36.3388 54.2425 36.0799 55.1691C35.8211 56.0956 36.0799 57.0902 36.7612 57.7715L47.607 66.0693V66.0557C49.4873 67.5136 50.6318 68.3993 53.3705 71.0698C62.336 80.3487 59.9788 86.4392 59.9788 97.1079C60.1832 105.024 62.3496 112.763 66.2737 119.644C68.4538 123.65 71.1788 127.302 74.3535 130.545C72.0917 130.79 69.8027 130.926 67.4864 130.926C32.5373 130.912 4.08761 102.476 4.08761 67.5C4.08761 32.5237 32.5373 4.08761 67.5 4.08761C102.463 4.08761 130.912 32.5373 130.912 67.5C130.912 75.9341 129.25 83.9867 126.253 91.3444ZM68.9988 59.1068C68.9988 61.2596 67.2547 63.0036 65.1019 63.0036C62.9491 63.0036 61.2051 61.2596 61.2051 59.1068C61.2051 56.954 62.9491 55.2099 65.1019 55.2099C67.2684 55.2099 68.9988 56.954 68.9988 59.1068Z"></path>
	</svg>
